X: 2007
T: Carolan's Pasticcio
R: waltz
C: Rick Gagne
N: 1987 on whistle and anglo concertina
N: composed in C on C/G anglo concertina
M: 3/4
L: 1/8
K: D
"D"F4 A2 | d4 B2 | A3 F D2 | D2 "A"E2 "Bm"F2 |\
"G"G3 A B2 | "D"A3 G F2 | "G"G3 F E D | "A"E4 A2 |
"D"F4 A2 | d4 B2 | A3 F D2 | D2 "A"E2 "Bm"F2 |\
"G"G3 A B2 | "D"A d3 A2 | "A"G3 F E2 |1 "D"D4 A2 :|2 "D"D4 d2 ||
"A"c3 d e2 | "A7"g2 f2 e2 | "D"d3 A F2 | "Bm"F2 "Em"G2 "D"A2 |\
"G"B3 G E2 | "Em"E2 B2 d2 | "A"c3 B A2 | "A"A2 "Bm"B2 "A"c2 |
"D"d3 c d2 | "G"B2 c2 d2 | "D"A2 F2 D2 | D2 "A"E2 "Bm"F2 |\
"G"G3 A B2 | "D"A d3 A2 | "A"G3 F E2 |1 "D"D4 d2 :|2 "D"D6 ||
